X: 2267
T: TWIN KATY'S REEL
R: Reel.
%R: reel
B: James Kerr "Merry Melodies" v.2 p.29 #267
Z: 2016 John Chambers <jc:trillian.mit.edu>
M: C
L: 1/8
K: G
vdc !segno!|:\
BABc dcAc | BGGB d2cA |\
BABc d2cA | d2cA BGG2 :|\
fgaf g2fd | dcAc d2de |
fgaf g2fd | dcAc BGG2 |\
fgaf g2fd | dcAc d2cA |\
fgaf gbag | fdcA BG"_D.C."Ac !segno! |]

%%sep 1 1 500
%%sep 1 1 500

